static/images/return-to-the-past.svg

<svg height="512pt" viewBox="0 0 512 512" width="512pt" xmlns="http://www.w3.org/2000/svg"><path d="m256 10c-32.214844 0-62.984375 6.195312-91.183594 17.457031l-9.953125-17.136719-39.546875 68.929688 79.464844-.21875-9.597656-16.519531c22.085937-8.085938 45.929687-12.511719 70.816406-12.511719 113.769531 0 206 92.230469 206 206s-92.230469 206-206 206-206-92.230469-206-206h-40c0 135.863281 110.136719 246 246 246s246-110.136719 246-246-110.136719-246-246-246zm0 0" fill="#36d28f"/><path d="m420 256c0 90.574219-73.425781 164-164 164s-164-73.425781-164-164 73.425781-164 164-164 164 73.425781 164 164zm0 0" fill="#ade5ff"/><path d="m437.019531 74.980469c-48.351562-48.351563-112.640625-74.980469-181.019531-74.980469-29.859375 0-59.015625 5.074219-86.800781 15.097656l-5.691407-9.800781c-1.789062-3.078125-5.082031-4.976563-8.644531-4.976563-.007812 0-.019531 0-.027343 0-3.570313.011719-6.867188 1.925782-8.644532 5.023438l-39.546875 68.925781c-1.777343 3.101563-1.765625 6.914063.027344 10 1.789063 3.082031 5.085937 4.976563 8.644531 4.976563h.027344l79.464844-.214844c3.574218-.011719 6.871094-1.925781 8.648437-5.023438 1.777344-3.097656 1.765625-6.910156-.027343-10l-3.417969-5.882812c18.105469-5.394531 36.890625-8.125 55.988281-8.125 108.074219 0 196 87.925781 196 196s-87.925781 196-196 196-196-87.925781-196-196c0-5.523438-4.476562-10-10-10h-40c-5.523438 0-10 4.476562-10 10 0 68.378906 26.628906 132.667969 74.980469 181.019531 48.351562 48.351563 112.640625 74.980469 181.019531 74.980469s132.667969-26.628906 181.019531-74.980469c48.351563-48.351562 74.980469-112.640625 74.980469-181.019531s-26.628906-132.667969-74.980469-181.019531zm-181.019531 417.019531c-126.777344 0-230.53125-100.492188-235.789062-226h20.015624c2.441407 53.941406 24.605469 104.304688 63.039063 142.734375 40.796875 40.796875 95.039063 63.265625 152.734375 63.265625s111.9375-22.46875 152.734375-63.265625 63.265625-95.039063 63.265625-152.734375-22.46875-111.9375-63.265625-152.734375-95.039063-63.265625-152.734375-63.265625c-25.488281 0-50.472656 4.414062-74.253906 13.121094-2.777344 1.015625-4.960938 3.210937-5.964844 5.992187-1.007812 2.78125-.730469 5.863281.757812 8.421875l.894532 1.542969-44.824219.121094 22.304687-38.878907 1.257813 2.160157c2.488281 4.289062 7.75 6.105469 12.351563 4.261719 27.824218-11.109376 57.253906-16.742188 87.476562-16.742188 130.132812 0 236 105.867188 236 236s-105.867188 236-236 236zm0 0"/><path d="m379.035156 132.964844c-3.898437-3.898438-10.195312-3.886719-14.101562.007812-3.910156 3.890625-3.90625 10.234375-.023438 14.148438.011719.011718.066406.066406.074219.074218 1.949219 1.945313 4.492187 2.917969 7.039063 2.917969 2.554687 0 5.109374-.976562 7.066406-2.925781 3.910156-3.890625 3.90625-10.234375.023437-14.152344-.011719-.007812-.066406-.0625-.078125-.070312zm0 0"/><path d="m344.554688 117.558594c2.6875-4.824219.957031-10.914063-3.867188-13.605469-32.402344-18.070313-70.609375-25.328125-107.585938-20.449219-38.199218 5.046875-72.828124 22.148438-100.136718 49.460938-32.867188 32.863281-50.964844 76.558594-50.964844 123.035156s18.097656 90.171875 50.964844 123.035156c32.863281 32.867188 76.558594 50.964844 123.035156 50.964844s90.171875-18.097656 123.035156-50.964844c56.542969-56.539062 67.367188-143.875 26.320313-212.378906-2.835938-4.738281-8.980469-6.273438-13.71875-3.4375-4.738281 2.839844-6.277344 8.980469-3.4375 13.71875 36.324219 60.621094 26.738281 137.914062-23.304688 187.957031-29.085937 29.085938-67.757812 45.105469-108.894531 45.105469s-79.808594-16.019531-108.894531-45.105469c-29.085938-29.085937-45.105469-67.757812-45.105469-108.894531s16.019531-79.808594 45.105469-108.894531c48.460937-48.460938 124.058593-59.019531 183.84375-25.683594 4.824219 2.6875 10.914062.957031 13.605469-3.863281zm0 0"/><path d="m266.128906 136.5v-7.5c0-5.523438-4.480468-10-10-10-5.523437 0-10 4.476562-10 10v7.5c0 5.523438 4.476563 10 10 10 5.519532 0 10-4.476562 10-10zm0 0"/><path d="m245.871094 375.5v7.5c0 5.523438 4.480468 10 10 10 5.523437 0 10-4.476562 10-10v-7.5c0-5.523438-4.476563-10-10-10-5.519532 0-10 4.476562-10 10zm0 0"/><path d="m365.5 256.128906c0 5.519532 4.476562 10 10 10h7.5c5.523438 0 10-4.480468 10-10 0-5.523437-4.476562-10-10-10h-7.5c-5.523438 0-10 4.476563-10 10zm0 0"/><path d="m129 245.871094c-5.523438 0-10 4.480468-10 10 0 5.523437 4.476562 10 10 10h7.5c5.523438 0 10-4.476563 10-10 0-5.519532-4.476562-10-10-10zm0 0"/><path d="m316 256c0-5.523438-4.476562-10-10-10h-45.859375l-74.972656-74.972656c-3.902344-3.90625-10.234375-3.90625-14.140625 0-3.90625 3.902344-3.90625 10.234375 0 14.140625l77.902344 77.902343c1.875 1.875 4.417968 2.929688 7.070312 2.929688h50c5.523438 0 10-4.476562 10-10zm0 0"/></svg>

<?xml version="1.0" encoding="UTF-8" standalone="no"?>
<svg
   xmlns:dc="http://purl.org/dc/elements/1.1/"
   xmlns:cc="http://creativecommons.org/ns#"
   xmlns:rdf="http://www.w3.org/1999/02/22-rdf-syntax-ns#"
   xmlns:svg="http://www.w3.org/2000/svg"
   xmlns="http://www.w3.org/2000/svg"
   xmlns:sodipodi="http://sodipodi.sourceforge.net/DTD/sodipodi-0.dtd"
   xmlns:inkscape="http://www.inkscape.org/namespaces/inkscape"
   height="512pt"
   viewBox="0 0 512 512"
   width="512pt"
   version="1.1"
   id="svg22"
   sodipodi:docname="return-to-the-past.svg"
   inkscape:version="0.92.3 (2405546, 2018-03-11)">
  <metadata
     id="metadata28">
    <rdf:RDF>
      <cc:Work
         rdf:about="">
        <dc:format>image/svg+xml</dc:format>
        <dc:type
           rdf:resource="http://purl.org/dc/dcmitype/StillImage" />
      </cc:Work>
    </rdf:RDF>
  </metadata>
  <defs
     id="defs26" />
  <sodipodi:namedview
     pagecolor="#ffffff"
     bordercolor="#666666"
     borderopacity="1"
     objecttolerance="10"
     gridtolerance="10"
     guidetolerance="10"
     inkscape:pageopacity="0"
     inkscape:pageshadow="2"
     inkscape:window-width="1920"
     inkscape:window-height="1013"
     id="namedview24"
     showgrid="false"
     inkscape:zoom="0.34570313"
     inkscape:cx="-203.9322"
     inkscape:cy="225.62712"
     inkscape:window-x="-9"
     inkscape:window-y="-9"
     inkscape:window-maximized="1"
     inkscape:current-layer="layer1" />
  <g
     inkscape:groupmode="layer"
     id="layer1"
     inkscape:label="Layer 1"
     style="display:inline;opacity:0.08">
    <path
       style="fill:#36d28f"
       d="m 256,10 c -32.21484,0 -62.98438,6.195312 -91.18359,17.457031 L 154.86328,10.320312 115.31641,79.25 194.78125,79.03125 185.18359,62.511719 C 207.26953,54.425781 231.11328,50 256,50 369.76953,50 462,142.23047 462,256 462,369.76953 369.76953,462 256,462 142.23047,462 50,369.76953 50,256 H 10 C 10,391.86328 120.13672,502 256,502 391.86328,502 502,391.86328 502,256 502,120.13672 391.86328,10 256,10 Z m 0,0"
       id="path2"
       inkscape:connector-curvature="0" />
    <path
       style="fill:#ade5ff"
       d="M 420,256 C 420,346.57422 346.57422,420 256,420 165.42578,420 92,346.57422 92,256 92,165.42578 165.42578,92 256,92 c 90.57422,0 164,73.42578 164,164 z m 0,0"
       id="path4"
       inkscape:connector-curvature="0" />
    <path
       d="M 437.01953,74.980469 C 388.66797,26.628906 324.37891,0 256,0 226.14062,0 196.98437,5.074219 169.19922,15.097656 l -5.69141,-9.800781 c -1.78906,-3.078125 -5.08203,-4.976563 -8.64453,-4.976563 -0.008,0 -0.0195,0 -0.0273,0 -3.57032,0.011719 -6.86719,1.925782 -8.64453,5.023438 l -39.54688,68.925781 c -1.77734,3.101563 -1.76562,6.914063 0.0273,10 1.78907,3.082031 5.08594,4.976563 8.64454,4.976563 h 0.0273 l 79.46484,-0.214844 c 3.57422,-0.01172 6.8711,-1.925781 8.64844,-5.023438 1.77734,-3.097656 1.76563,-6.910156 -0.0273,-10 L 200.01172,68.125 C 218.11719,62.730469 236.90234,60 256,60 364.07422,60 452,147.92578 452,256 452,364.07422 364.07422,452 256,452 147.92578,452 60,364.07422 60,256 60,250.47656 55.523438,246 50,246 H 10 C 4.476562,246 0,250.47656 0,256 0,324.37891 26.628906,388.66797 74.980469,437.01953 123.33203,485.37109 187.62109,512 256,512 324.37891,512 388.66797,485.37109 437.01953,437.01953 485.37109,388.66797 512,324.37891 512,256 512,187.62109 485.37109,123.33203 437.01953,74.980469 Z M 256,492 C 129.22266,492 25.46875,391.50781 20.210938,266 H 40.226562 C 42.667969,319.94141 64.832031,370.30469 103.26562,408.73437 144.0625,449.53125 198.30469,472 256,472 313.69531,472 367.9375,449.53125 408.73437,408.73437 449.53125,367.9375 472,313.69531 472,256 472,198.30469 449.53125,144.0625 408.73437,103.26563 367.9375,62.46875 313.69531,40 256,40 c -25.48828,0 -50.47266,4.414062 -74.25391,13.121094 -2.77734,1.015625 -4.96093,3.210937 -5.96484,5.992187 -1.00781,2.78125 -0.73047,5.863281 0.75781,8.421875 l 0.89453,1.542969 -44.82422,0.121094 22.30469,-38.878907 1.25781,2.160157 c 2.48829,4.289062 7.75,6.105469 12.35157,4.261719 C 196.34766,25.632812 225.77734,20 256,20 386.13281,20 492,125.86719 492,256 492,386.13281 386.13281,492 256,492 Z m 0,0"
       id="path6"
       inkscape:connector-curvature="0"
       style="" />
    <path
       d="m 379.03516,132.96484 c -3.89844,-3.89843 -10.19532,-3.88672 -14.10157,0.008 -3.91015,3.89062 -3.90625,10.23437 -0.0234,14.14843 0.0117,0.0117 0.0664,0.0664 0.0742,0.0742 1.94922,1.94531 4.49219,2.91797 7.03907,2.91797 2.55468,0 5.10937,-0.97656 7.0664,-2.92578 3.91016,-3.89063 3.90625,-10.23438 0.0234,-14.15234 -0.0117,-0.008 -0.0664,-0.0625 -0.0781,-0.0703 z m 0,0"
       id="path8"
       inkscape:connector-curvature="0"
       style="" />
    <path
       d="m 344.55469,117.55859 c 2.6875,-4.82421 0.95703,-10.91406 -3.86719,-13.60546 C 308.28516,85.882812 270.07812,78.625 233.10156,83.503906 194.90234,88.550781 160.27344,105.65234 132.96484,132.96484 100.09766,165.82812 82,209.52344 82,256 c 0,46.47656 18.09766,90.17187 50.96484,123.03516 C 165.82812,411.90234 209.52344,430 256,430 c 46.47656,0 90.17187,-18.09766 123.03516,-50.96484 56.54296,-56.53907 67.36718,-143.875 26.32031,-212.37891 -2.83594,-4.73828 -8.98047,-6.27344 -13.71875,-3.4375 -4.73828,2.83984 -6.27735,8.98047 -3.4375,13.71875 36.32422,60.62109 26.73828,137.91406 -23.30469,187.95703 C 335.80859,393.98047 297.13672,410 256,410 214.86328,410 176.19141,393.98047 147.10547,364.89453 118.01953,335.80859 102,297.13672 102,256 c 0,-41.13672 16.01953,-79.80859 45.10547,-108.89453 48.46094,-48.460939 124.05859,-59.019532 183.84375,-25.68359 4.82422,2.6875 10.91406,0.95703 13.60547,-3.86329 z m 0,0"
       id="path10"
       inkscape:connector-curvature="0"
       style="" />
    <path
       d="M 266.12891,136.5 V 129 c 0,-5.52344 -4.48047,-10 -10,-10 -5.52344,0 -10,4.47656 -10,10 v 7.5 c 0,5.52344 4.47656,10 10,10 5.51953,0 10,-4.47656 10,-10 z m 0,0"
       id="path12"
       inkscape:connector-curvature="0"
       style="" />
    <path
       d="m 245.87109,375.5 v 7.5 c 0,5.52344 4.48047,10 10,10 5.52344,0 10,-4.47656 10,-10 v -7.5 c 0,-5.52344 -4.47656,-10 -10,-10 -5.51953,0 -10,4.47656 -10,10 z m 0,0"
       id="path14"
       inkscape:connector-curvature="0"
       style="" />
    <path
       d="m 365.5,256.12891 c 0,5.51953 4.47656,10 10,10 h 7.5 c 5.52344,0 10,-4.48047 10,-10 0,-5.52344 -4.47656,-10 -10,-10 h -7.5 c -5.52344,0 -10,4.47656 -10,10 z m 0,0"
       id="path16"
       inkscape:connector-curvature="0"
       style="" />
    <path
       d="m 129,245.87109 c -5.52344,0 -10,4.48047 -10,10 0,5.52344 4.47656,10 10,10 h 7.5 c 5.52344,0 10,-4.47656 10,-10 0,-5.51953 -4.47656,-10 -10,-10 z m 0,0"
       id="path18"
       inkscape:connector-curvature="0"
       style="" />
    <path
       d="m 316,256 c 0,-5.52344 -4.47656,-10 -10,-10 h -45.85938 l -74.97265,-74.97266 c -3.90235,-3.90625 -10.23438,-3.90625 -14.14063,0 -3.90625,3.90235 -3.90625,10.23438 0,14.14063 l 77.90235,77.90234 C 250.80469,264.94531 253.34766,266 256,266 h 50 c 5.52344,0 10,-4.47656 10,-10 z m 0,0"
       id="path20"
       inkscape:connector-curvature="0"
       style="" />
  </g>
</svg>
